X: 108
T: Rzekł Pan do pana mego swym głosem łaskawym:
C: Mikołaj Gomółka
%%abc-version 2.0
%%abcx-abcm2ps-target-version 5.9.1 (29 Sep 2008)
%%abc-creator hum2abc beta
%%abcx-conversion-date 2021/10/04 07:59:09
%%abc-edited-by Anna Matuszewska
%%abcx-initial-encoding-date 2020-02-18
%%humdrum-veritas 1927097580
%%humdrum-veritas-data 2223588367
%%linebreak <none>
%%barnumbers 0
L: 1/4
M: C|
N: Derived from pl-wn--sd-xvi-qu-273--110_gomolka-mikolaj--rzekl-pan-do-pana-mego-swym-glosem-laskawym.krn
%%staves [1 2 3 4]
V: 1
V: 2 clef=alto
V: 3 clef=tenor
V: 4 clef=bass
K: F
[V:1] G4G2B2 | 
[V:2] D4D2D2 | 
[V:3] G,2B,A,G,F,G,2 | 
[V:4] G,,4G,,2G,2 [|] 
[V:1] A2A4G2 | 
[V:2] D2D2D3E | 
[V:3] A,2A,2B,4 | 
[V:4] G,2F,2G,4 [|] 
[V:1] A2E4E2 | 
[V:2] F2C4C2 | 
[V:3] A,B,C2G,2G,2 | 
[V:4] D,2C,4C,2 [|] 
[V:1] F2F2E4 | 
[V:2] A,2D2C3B, | 
[V:3] F,2B,A,G,F,G,2 | 
[V:4] D,2B,,2C,4 [|] 
[V:1] D2D2D2D2 | 
[V:2] A,2B,2B,2G,2 | 
[V:3] F,2G,2>A,2B,2 | 
[V:4] D,2G,,2G,,2G,,2 [|] 
[V:1] EFG4F2 | 
[V:2] G,2C2D3C | 
[V:3] CB,A,G,A,4 | 
[V:4] C,2_E,2D,4 [|] 
[V:1] G2G2G2B2 | 
[V:2] B,2D2D2G2 | 
[V:3] G,2B,2>C2D2 | 
[V:4] G,,2G,,2G,,2G,2 [|] 
[V:1] A2A4G2 | 
[V:2] E2F2D4 | 
[V:3] C2A,2D4 | 
[V:4] A,2F,2B,4 [|] 
[V:1] A2G4F2 | 
[V:2] E2D4C2 | 
[V:3] C2G,4A,2 | 
[V:4] A,2B,4A,2 [|] 
[V:1] EDD4C2 | 
[V:2] B,2>A,2G,F,G,2 | 
[V:3] B,2F,2G,4 | 
[V:4] G,2>F,2E,D,E,2 [|] 
[V:1] D2G2B2A2 | 
[V:2] A,2D2D2D2 | 
[V:3] ^F,2G,2G,2A,2 | 
[V:4] D,2G,,2G,,2^F,,2 [|] 
[V:1] GFEDE4 | 
[V:2] G,2G,2C4 | 
[V:3] B,2G,2A,3G, | 
[V:4] G,,2B,,2A,,4 [|] 
[V:1] D2G4F2 | 
[V:2] A,2D4C3 | 
[V:3] F,2G,2D,2A,2 | 
[V:4] D,2G,,4A,,B,, [|] 
[V:1] E2D4C2 | 
[V:2] B,A,G,A,4 | 
[V:3] G,F,E,D,E,4 | 
[V:4] C,2D,2A,,4 [|] 
[V:1] D8 | 
[V:2] A,8 | 
[V:3] D,8 | 
[V:4] D,8 | 


